X: 520
T: Zai liushu
%%abc-version 2.0
%%abcx-abcm2ps-target-version 5.9.1 (29 Sep 2008)
%%abc-creator hum2abc beta
%%abcx-conversion-date 2013/10/02 07:52:30
%%abc-edited-by Helmut Schaffrath
%%humdrum-veritas 1655374794
%%humdrum-veritas-data 4233173894
%%continueall 1
%%barnumbers 0
L: 1/8
M: 2/4
K: F
c c A c [I:setbarnb 1]| 
f f e g | 
f f d f | 
c4 | 
c c/ B/ G B | 
c2d f | 
c4 | 
G/ G/ G/ G/ c z | 
G/ G/ G/ G/ C z | 
c> f d c | 
c DF2 | 
G G/ G/ F D | 
C2D F | 
C4 |]  



